src/helpers/heroicons/outline/map.svg

<svg width="24" height="24" viewBox="0 0 24 24" fill="none" xmlns="http://www.w3.org/2000/svg">
<path d="M9 6.75002V15M15 9.00002V17.25M15.5031 20.7485L20.3781 18.311C20.7592 18.1204 21 17.7309 21 17.3047V4.82031C21 3.98401 20.1199 3.44007 19.3719 3.81408L15.5031 5.74847C15.1864 5.90683 14.8136 5.90683 14.4969 5.74847L9.50312 3.25158C9.1864 3.09322 8.8136 3.09322 8.49688 3.25158L3.62188 5.68908C3.24075 5.87965 3 6.26919 3 6.69531V19.1797C3 20.016 3.8801 20.56 4.62811 20.186L8.49688 18.2516C8.8136 18.0932 9.1864 18.0932 9.50312 18.2516L14.4969 20.7485C14.8136 20.9068 15.1864 20.9068 15.5031 20.7485Z"  stroke-width="1.5" stroke-linecap="round" stroke-linejoin="round"/>
</svg>

<svg xmlns="http://www.w3.org/2000/svg" fill="none" viewBox="0 0 24 24" stroke-width="1.5" stroke="currentColor" aria-hidden="true" data-slot="icon">
  <path stroke-linecap="round" stroke-linejoin="round" d="M9 6.75V15m6-6v8.25m.503 3.498 4.875-2.437c.381-.19.622-.58.622-1.006V4.82c0-.836-.88-1.38-1.628-1.006l-3.869 1.934c-.317.159-.69.159-1.006 0L9.503 3.252a1.125 1.125 0 0 0-1.006 0L3.622 5.689C3.24 5.88 3 6.27 3 6.695V19.18c0 .836.88 1.38 1.628 1.006l3.869-1.934c.317-.159.69-.159 1.006 0l4.994 2.497c.317.158.69.158 1.006 0Z"/>
</svg>
